www/assets/icons/toys.svg

<svg width="24" height="24" viewBox="0 0 24 24" xmlns="http://www.w3.org/2000/svg" fill='currentColor'><path d="M22.5013 14C22.5013 12.05 21.1013 10.43 19.2513 10.08L17.9013 6.05C17.5013 4.82 16.3513 4 15.0613 4H9.94128C8.65128 4 7.50128 4.82 7.10128 6.05L6.31128 8.4L4.91128 7L5.20128 6.71C5.59128 6.32 5.59128 5.69 5.20128 5.3C4.81128 4.91 4.18128 4.91 3.79128 5.3L1.79128 7.3C1.40128 7.69 1.40128 8.32 1.79128 8.71C2.18128 9.1 2.81128 9.1 3.20128 8.71L3.50128 8.41L5.29128 10.2C3.68128 10.72 2.50128 12.22 2.50128 14C2.50128 15.5 3.33128 16.79 4.55128 17.48C4.78128 18.9 6.01128 20 7.50128 20C8.80128 20 9.90128 19.16 10.3213 18H14.6913C15.1013 19.16 16.2013 20 17.5113 20C19.0013 20 20.2313 18.9 20.4613 17.48C21.6713 16.79 22.5013 15.5 22.5013 14ZM7.50128 18C6.95128 18 6.50128 17.55 6.50128 17C6.50128 16.45 6.95128 16 7.50128 16C8.05128 16 8.50128 16.45 8.50128 17C8.50128 17.55 8.05128 18 7.50128 18ZM11.5013 10H7.91128L7.89128 9.98L8.99128 6.68C9.13128 6.27 9.51128 6 9.94128 6H11.5013V10ZM13.5013 6H15.0613C15.4913 6 15.8713 6.27 16.0113 6.68L17.1113 10H13.5013V6ZM17.5013 18C16.9513 18 16.5013 17.55 16.5013 17C16.5013 16.45 16.9513 16 17.5013 16C18.0513 16 18.5013 16.45 18.5013 17C18.5013 17.55 18.0513 18 17.5013 18Z"/></svg>

<svg xmlns="http://www.w3.org/2000/svg" width="24" height="24" viewBox="0 0 24 24" fill='currentColor'><path d="M22.501 14c0-1.95-1.4-3.57-3.25-3.92l-1.35-4.03A2.98 2.98 0 0 0 15.061 4h-5.12c-1.29 0-2.44.82-2.84 2.05l-.79 2.35-1.4-1.4.29-.29a.996.996 0 1 0-1.41-1.41l-2 2a.996.996 0 1 0 1.41 1.41l.3-.3 1.79 1.79c-1.61.52-2.79 2.02-2.79 3.8 0 1.5.83 2.79 2.05 3.48A3 3 0 0 0 7.501 20c1.3 0 2.4-.84 2.82-2h4.37c.41 1.16 1.51 2 2.82 2a3 3 0 0 0 2.95-2.52c1.21-.69 2.04-1.98 2.04-3.48m-15 4c-.55 0-1-.45-1-1s.45-1 1-1 1 .45 1 1-.45 1-1 1m4-8h-3.59l-.02-.02 1.1-3.3a1 1 0 0 1 .95-.68h1.56zm2-4h1.56a1 1 0 0 1 .95.68l1.1 3.32h-3.61zm4 12c-.55 0-1-.45-1-1s.45-1 1-1 1 .45 1 1-.45 1-1 1"/></svg>
